X:1
T:James Gibb editions
T:Haec dies - Viadana
%%score [ 1 2 3 4 ]
L:1/8
Q:1/4=80
M:none
K:F
V:1 treble nm="Soprano"
V:2 treble nm="Alto"
V:3 treble-8 nm="Tenor"
V:4 bass nm="Bass"
V:1
"^Haec dies""^Ludovico da Viadana\n(1560-1627)" (DC_ED C DB, DF) (F2- FDCDCD) D2 || %1
w: Haec * * * * * * * * di\- * * * * * * es|
[M:4/4][Q:1/4=120] F4 F2 G2 | A3 A G4 ||[M:3/4][Q:1/4=140] F4 F2 | G4 A2 | A4 G2 | %6
w: quam fe- cit|Do- mi- num:|ex- ul-|te- mus|et lae-|
[M:3/4][Q:1/4=140][Q:1/4=140][Q:1/4=140][Q:1/4=140] F2 G2 A2 | F4 G2 | G4 A2 | F4 F2 | G4 A2 | %11
w: te- mur in|e- a,|ex- ul-|te- mus.|et lae-|
 F2 F2 F2 | B4 A2 | F4 F2 | G4 A2 | B4 G2 | F2 E2 F2 | E4 F2 | G4 E2 | D2 G2 A2 | B6 | A6!fine! |] %22
w: te- mur in|e- a,|ex- ul-|te- mus|et lae-|te- mur in|e- a,|et lae-|te- mur in|e-|a.|
[M:3/2] E8 G4 | D8 D4 | A8 d4 | B8 c4 | G8 B4 | B8 c4 | A4 d8 | B12 | G8 B4 | B4 c2 A2 d4 | %32
w: Et lae-|te- mur,|e- xul-|te- mus|et lae-|te- mur|in e-|a,|et lae-|te- mur in e-|
 B12!D.C.! |] %33
w: a.|
V:2
 (DC_ED C DB,) DF (F2- FDCDCD) D2 ||[M:4/4] D4 D2 E2 | F3 F E4 ||[M:3/4] C4 D2 | D4 F2 | E4 E2 | %6
w: Haec * * * * * * * * di\- * * * * * * es|quam fe- cit|Do- mi- num:|ex- ul-|te- mus|et lae-|
[M:3/4] C2 C2 C2 | D4 E2 | E4 F2 | D4 D2 | E4 F2 | D2 C2 D2 | D4 F2 | C4 D2 | D4 F2 | F4 E2 | %16
w: te- mur in|e- a,|ex- ul-|te- mus|et lae-|te- mur in|e- a,|ex- ul-|te- mus|et lae-|
 D2 E2 D2 | C4 D2 | D4 C2 | D2 D2 D2 | D6 | D6 |][M:3/2] C8 E4 | G8 G4 | ^F8 F4 | G8 E4 | E8 G4 | %27
w: te- mur in|e- a,|et lae-|te- mur in|e-|a.|Et lae-|te- mur,|e- xul-|te- mus|et lae-|
 G8 E4 | F4 ^F8 | G12 | E8 G4 | G4 E2 F2 ^F4 | G12 |] %33
w: te- mur|in e-|a,|et lae-|te- mur in e-|a.|
V:3
 (DC_ED C DB, DF) (F2- FDCDCD) D2 ||[M:4/4] A4 A2 B2 | c3 c c4 ||[M:3/4] A4 A2 | B4 c2 | c4 c2 | %6
w: Haec * * * * * * * * di\- * * * * * * es|quam fe- cit|Do- mi- num:|ex- ul-|te- mus|et lae-|
[M:3/4][K:treble-8] A2 G2 F2 | A4 c2 | c4 A2 | B4 G2 | c4 A2 | B2 A2 B2 | G4 F2 | A4 A2 | B4 c2 | %15
w: te- mur in|e- a,|ex- ul-|te- mus|et lae-|te- mur in|e- a,|ex- ul-|te- mus|
 d4 c2 | A2 A2 A2 | A4 A2 | B4 A2 | F2 B2 A2 | G6 | ^F6 |][M:3/2] G8 G4 | B8 B4 | d8 A4 | d8 G4 | %26
w: et lae-|te- mur in|e- a,|et lae-|te- mur in|e-|a.|Et lae-|te- mur,|e- xul-|te- mus|
 (c4 G4) d4 | d8 G4 | c4 A8 | d12 | (c4 G4) d4 | d4 G2 c2 A4 | d12 |] %33
w: et * lae-|te- mur|in e-|a,|et * lae-|te- mur in e-|a.|
V:4
 (D,C,_E,D, C, D,B,, D,F,) (F,2- F,D,C,D,C,D,) D,2 ||[M:4/4] D,4 D,2 C,2 | F,3 F, C,4 || %3
w: Haec * * * * * * * * di\- * * * * * * es|quam fe- cit|Do- mi- num:|
[M:3/4] F,4 D,2 | G,4 F,2 | A,4 E,2 |[M:3/4] F,2 E,2 F,2 | D,4 C,2 | z6 | z6 | z6 | z6 | z6 | %13
w: ex- ul-|te- mus|et lae-|te- mur in|e- a,||||||
 F,4 D,2 | G,4 F,2 | B,,4 C,2 | D,2 C,2 D,2 | A,,4 D,2 | G,,4 A,,2 | B,,2 G,,2 F,,2 | G,,6 | D,6 |] %22
w: ex- ul-|te- mus|et lae-|te- mur in|e- a,|et lae-|te- mur in|e-|a.|
[M:3/2] C,8 C,4 | G,8 G,4 | D,8 D,4 | G,,8 C,4 | C,8 G,,4 | G,,8 C,4 | F,,4 D,8 | G,,12 | %30
w: Et lae-|te- mur,|e- xul-|te- mus|et lae-|te- mur|in e-|a,|
 C,8 G,,4 | G,,4 C,2 F,,2 D,4 | G,,12 |] %33
w: Et lae-|te- mur in e-|a.|

